svg/color/gxlt.svg

<svg height="32" viewBox="0 0 32 32" width="32" xmlns="http://www.w3.org/2000/svg"><g fill="none"><circle cx="16" cy="16" fill="#005396" r="16"/><path d="m8.32831169.59844156c1.03792208-.32727273 2.11948051-.53298701 3.21038961-.56727273 1.4961039-.06857143 3.0015584.17454546 4.4166234.65766234 2.2909091.80727273 4.3293506 2.32207792 5.7444156 4.29506493.3303896.43948052.6077922.91324676.8758441 1.39324676.3116883.6077922.5922078 1.23428571.8041559 1.8825974.2805194.89142857.4893506 1.81402594.5548052 2.74909094.0342857.2025974.0124675.4083117.0405194.6109091.0093507.2524675.0062338.504935 0 .7605194-.0280519.2025974-.0062337.4083117-.0405194.6109091-.0592208.8415585-.2337663 1.6737663-.4737663 2.4841559-.1932467.6701298-.4706493 1.3153247-.7792208 1.9418182-1.1688311 2.3002597-3.091948 4.2077922-5.410909 5.3361039-.6514286.317922-1.3309091.5890909-2.0322078.772987-1.175065.3366233-2.4.48-3.6187013.4457143-.2025974-.028052-.4114286-.0062338-.6109091-.0405195-.9132468-.0623377-1.81090912-.2618182-2.68363639-.532987-2.30025975-.7387013-4.36051949-2.1974026-5.82857143-4.1142858-.76363637-.9911688-1.36519481-2.1070129-1.78909091-3.2851948-.38961039-1.1345454-.63896104-2.3220779-.67012987-3.5251948-.04051948-.5766233.00311688-1.1563636.04987013-1.732987.08727273-.85090907.28051948-1.69246751.54233766-2.50597401.78545455-2.36571428 2.32831169-4.47584415 4.35428571-5.93454545.43948052-.33038961.91324676-.61090909 1.39324676-.87584416.6264935-.32415584 1.27480519-.61402597 1.95116883-.82597402zm2.30961041 4.32935065v2.80207792c-.0062338.04987013.0405195.07792208.0654545.11220779.4301299.45194805.8633766.90077922 1.2935065 1.35272727-.0031169-1.4212987-.0031169-2.84571428 0-4.26701298-.451948 0-.907013-.00311689-1.358961 0zm-5.90961041 1.44935065c.10285714.06857143.17766234.16831169.26493506.25246753.92571429.93506493 1.85454546 1.86701299 2.77714286 2.80831169.84467533.85402602 1.69246753 1.70493502 2.53402599 2.55896102-1.01922079 1.0441559-2.05714287 2.0696104-3.07324677 3.1137663-.81350649.8197402-1.62701299 1.6394805-2.4374026 2.4592207-.01558441.0124676-.04675324.0374026-.06545454.0498702 1.19688312 0 2.39688312.0031168 3.59688312-.0062338 1.22493506-1.281039 2.45610389-2.558961 3.67792209-3.8431169 1.224935 1.281039 2.452987 2.5620779 3.6779221 3.8431169 1.1968831.0093506 2.3937662.0031169 3.5906493.0062338-.1838961-.1464935-.3272727-.3303897-.4987013-.4893507-.8571428-.8664935-1.7205195-1.732987-2.5745454-2.6025974-.829091-.8446753-1.6737663-1.6768831-2.4966234-2.5277922.1994805-.1994805.3864935-.4083117.5922078-.6046753 1.5677922-1.58025976 3.1293506-3.16675327 4.6971428-4.74701301.0935065-.09038961.1714286-.19636364.2805195-.27116883-1.2 0-2.3968831-.00311689-3.5937662.00311688-1.2249351 1.28103896-2.452987 2.55896104-3.6779221 3.83999996-1.2218182-1.2841558-2.45298701-2.56207788-3.67792208-3.83999996-1.19688311-.00311688-2.39688311-.00311688-3.59376623-.00311688zm7.27792211 8.41558444c0 1.4275324.0031168 2.851948-.0031169 4.2794805.4550649-.0031169.9101299 0 1.3620779 0 0-.9350649 0-1.8701299 0-2.8051948.0031169-.0342857-.0093506-.0623377-.0311688-.081039-.2306494-.2493506-.4737663-.4831169-.7012987-.7324675-.2057143-.2244156-.427013-.4301299-.6264935-.6607792z" fill="#fff" transform="translate(4 4)"/></g></svg>

<?xml version="1.0" encoding="UTF-8"?>
<svg width="32px" height="32px" viewBox="0 0 32 32" version="1.1" xmlns="http://www.w3.org/2000/svg" xmlns:xlink="http://www.w3.org/1999/xlink">
    <!-- Generator: Sketch 50 (54983) - http://www.bohemiancoding.com/sketch -->
    <title>color/gxlt</title>
    <desc>Created with Sketch.</desc>
    <defs></defs>
    <g id="color/gxlt" stroke="none" stroke-width="1" fill="none" fill-rule="evenodd">
        <g id="Group" fill="#005396" fill-rule="nonzero">
            <circle id="Oval" cx="16" cy="16" r="16"></circle>
        </g>
        <g id="GLX-Token-(GXLT)" transform="translate(4.000000, 4.000000)" fill="#FFFFFF" fill-rule="nonzero">
            <path d="M8.32831169,0.598441558 C9.36623377,0.271168831 10.4477922,0.0654545455 11.5387013,0.0311688312 C13.0348052,-0.0374025974 14.5402597,0.205714286 15.9553247,0.688831169 C18.2462338,1.4961039 20.2846753,3.01090909 21.6997403,4.9838961 C22.0301299,5.42337662 22.3075325,5.89714286 22.5755844,6.37714286 C22.8872727,6.98493506 23.1677922,7.61142857 23.3797403,8.25974026 C23.6602597,9.15116883 23.8690909,10.0737662 23.9345455,11.0088312 C23.9688312,11.2114286 23.947013,11.4171429 23.9750649,11.6197403 C23.9844156,11.8722078 23.9812987,12.1246753 23.9750649,12.3802597 C23.947013,12.5828571 23.9688312,12.7885714 23.9345455,12.9911688 C23.8753247,13.8327273 23.7007792,14.6649351 23.4607792,15.4753247 C23.2675325,16.1454545 22.9901299,16.7906494 22.6815584,17.4171429 C21.5127273,19.7174026 19.5896104,21.6249351 17.2706494,22.7532468 C16.6192208,23.0711688 15.9397403,23.3423377 15.2384416,23.5262338 C14.0633766,23.8628571 12.8384416,24.0062338 11.6197403,23.9719481 C11.4171429,23.9438961 11.2083117,23.9657143 11.0088312,23.9314286 C10.0955844,23.8690909 9.19792208,23.6696104 8.32519481,23.3984416 C6.02493506,22.6597403 3.96467532,21.201039 2.49662338,19.2841558 C1.73298701,18.292987 1.13142857,17.1771429 0.707532468,15.998961 C0.317922078,14.8644156 0.0685714286,13.6768831 0.0374025974,12.4737662 C-0.00311688312,11.8971429 0.0405194805,11.3174026 0.0872727273,10.7407792 C0.174545455,9.88987013 0.367792208,9.04831169 0.62961039,8.23480519 C1.41506494,5.86909091 2.95792208,3.75896104 4.9838961,2.30025974 C5.42337662,1.96987013 5.89714286,1.68935065 6.37714286,1.42441558 C7.00363636,1.10025974 7.65194805,0.81038961 8.32831169,0.598441558 Z M10.6379221,4.92779221 C10.6379221,5.86285714 10.6379221,6.79480519 10.6379221,7.72987013 C10.6316883,7.77974026 10.6784416,7.80779221 10.7033766,7.84207792 C11.1335065,8.29402597 11.5667532,8.74285714 11.9968831,9.19480519 C11.9937662,7.77350649 11.9937662,6.34909091 11.9968831,4.92779221 C11.5449351,4.92779221 11.0898701,4.92467532 10.6379221,4.92779221 Z M4.72831169,6.37714286 C4.83116883,6.44571429 4.90597403,6.54545455 4.99324675,6.62961039 C5.91896104,7.56467532 6.84779221,8.49662338 7.77038961,9.43792208 C8.61506494,10.2919481 9.46285714,11.1428571 10.3044156,11.9968831 C9.28519481,13.041039 8.24727273,14.0664935 7.23116883,15.1106494 C6.41766234,15.9303896 5.60415584,16.7501299 4.79376623,17.5698701 C4.77818182,17.5823377 4.74701299,17.6072727 4.72831169,17.6197403 C5.92519481,17.6197403 7.12519481,17.6228571 8.32519481,17.6135065 C9.55012987,16.3324675 10.7812987,15.0545455 12.0031169,13.7703896 C13.2280519,15.0514286 14.4561039,16.3324675 15.681039,17.6135065 C16.8779221,17.6228571 18.0748052,17.6166234 19.2716883,17.6197403 C19.0877922,17.4732468 18.9444156,17.2893506 18.772987,17.1303896 C17.9158442,16.2638961 17.0524675,15.3974026 16.1984416,14.5277922 C15.3693506,13.6831169 14.5246753,12.8509091 13.7018182,12 C13.9012987,11.8005195 14.0883117,11.5916883 14.294026,11.3953247 C15.8618182,9.81506494 17.4233766,8.22857143 18.9911688,6.64831169 C19.0846753,6.55792208 19.1625974,6.45194805 19.2716883,6.37714286 C18.0716883,6.37714286 16.8748052,6.37402597 15.6779221,6.38025974 C14.452987,7.6612987 13.2249351,8.93922078 12,10.2202597 C10.7781818,8.9361039 9.54701299,7.65818182 8.32207792,6.38025974 C7.12519481,6.37714286 5.92519481,6.37714286 4.72831169,6.37714286 Z M12.0062338,14.7927273 C12.0062338,16.2202597 12.0093506,17.6446753 12.0031169,19.0722078 C12.4581818,19.0690909 12.9132468,19.0722078 13.3651948,19.0722078 C13.3651948,18.1371429 13.3651948,17.2020779 13.3651948,16.267013 C13.3683117,16.2327273 13.3558442,16.2046753 13.334026,16.185974 C13.1033766,15.9366234 12.8602597,15.7028571 12.6327273,15.4535065 C12.427013,15.2290909 12.2057143,15.0233766 12.0062338,14.7927273 Z" id="Shape"></path>
        </g>
    </g>
</svg>
